X:1
T:Title
%%score { ( 1 3 ) | ( 2 4 ) }
L:1/8
Q:1/4=100
M:4/4
K:G
V:1 treble nm="Grand Piano"
V:3 treble 
V:2 bass 
V:4 bass 
V:1
 D>^C D>B A2 G2 | E>^D E>c B2 A2 | F>A d>^c =c>A E>F | [B,G]2[K:bass] [_B,E]2 D2- [=B,D]2 | %4
w: F.~J.~Howard * * * * *||||
 D>^C[K:treble] D>B A2 G2 | E>^D E>c B2 A2 | [DFd]>[Fc] [DFB]>[FA] [B,=F^G]>[^FA] [DFc]>F | %7
w: |||
[M:3/4] G2- [CG-]2 [B,G]2 |[M:1/4] D3/2 z/ |[M:4/4] [EFc]2 [DFB]2 [CFA]2 [DFB]2 | %10
w: |||
 A>G [_B,G]2 D2- [G,=B,D]2 | [B,G]>F [A,F]>G [CA]4 | [CA]>G G>A [DB]2 D2 | %13
w: |||
 [EFc]2 [DFB]2 [CFA]2 [DFB]2 | A>G [_B,G]2[K:bass] [D,=B,D]2 D>[K:treble]D | %15
w: ||
 E>F G>A B>G [CEc]>[CEB] |[M:3/4] A2- [B,FA]2 [B,DG]2 |] %17
w: ||
V:2
 G,,2 [D,G,B,]2 [D,G,B,]2 [D,G,B,]2 | C,2 [E,A,C]2 [E,A,C]2 [E,A,C]2 | %2
 [D,,D,]2 [D,F,C]2 [D,F,C]2 [D,F,C]2 | [G,,D,]2 [G,,^C,]2 G,,2 D,2 | %4
 G,,2 [D,G,B,]2 [D,G,B,]2 [D,G,B,]2 | C,2 [E,A,C]2 [E,A,C]2 [E,A,C]2 | %6
 z z/ E/ z z/ C/ z z/ C/ z z/ C/ |[M:3/4] D,2 z2 z2 |[M:1/4] z z/ D/ |[M:4/4] D,,2 D,2 D,,2 D,2 | %10
 [G,,D,]2 z z/ E/ G,,2 D,2 | z z/ A,/ z z/ B,/ D,,2 D,2 | z z/ B,/ B,>C G,,2 z z/ D/ | %13
 D,,2 D,2 D,,2 D,2 | [G,,D,]2 z z/ E/ G,,2 D,>D, | E,>F, G,>A, B,>G, A,,>A,, | %16
[M:3/4] D,2 D,2 G,,2 |] %17
V:3
 x8 | x8 | x8 | z4[K:bass] [D,=B,]2 z2 | x2[K:treble] x6 | x8 | x8 |[M:3/4] B,2 z2 z2 |[M:1/4] x2 | %9
[M:4/4] x8 | B,2 z2 =B,2 z2 | x8 | x8 | x8 | B,2 z2[K:bass] z4[K:treble] | x8 | %16
[M:3/4] [CG]2 z2 z2 |] %17
V:4
 x8 | x8 | x8 | x8 | x8 | x8 | D,,2 D,2 D,,2 D,2 |[M:3/4] G,,2- [G,,-E,]2 [G,,D,]2 |[M:1/4] D,2 | %9
[M:4/4] x8 | z2 [G,,^C,]2 z4 | D,,2 D,2 z4 | G,,2 [D,G,]2 z2 D,2 | x8 | z2 [G,,^C,]2 z4 | x8 | %16
[M:3/4] x6 |] %17

